X: 1
T: Ad\'e zur guten Nacht
O: Volkslied
M: C
L: 1/8
K: C
 G,2 | "C"C4 "G7"D2F2 | "C"E2ED C2D2 | "C"E4 "Dm"F2A2 | "G7"G2GF "C"E2G2 |
w: 1.~A-d\'e zur* gut-en* Nacht! Jetzt wird der* Schlu\ss ge-*macht, Da\ss
     | "Dm"G2FE "G7"F2G2 | "C"E4 z2 |: G2 | "C"E4 G2c2 | "F"A2AG "Dm"F2F2 |
w: ich mu\ss* scheid-*en. Im Som-mer da w\"achst der* Klee, Im
     | "G7"D4 F2A2 | "C"G2GF E2G2 | "Dm"G2FE "G7"F2G2 | "C"E4 z2 :|
